src/assets/icons/ico-eraser.svg

<svg width="24" height="24" viewBox="0 0 24 24" fill="none" xmlns="http://www.w3.org/2000/svg">
<g clip-path="url(#clip0_2330_1211)">
<path d="M23.789 8.07896C23.789 7.15948 23.4309 6.29503 22.7807 5.64483L18.8861 1.75026C18.2359 1.10006 17.3715 0.742004 16.452 0.742004C15.5325 0.742004 14.668 1.10006 14.0178 1.75026L3.28131 12.4868C1.93911 13.829 1.93911 16.0129 3.28131 17.355L7.98251 22.0562C8.11162 22.1854 8.28672 22.2579 8.46931 22.2579H22.1005C22.4807 22.2579 22.789 21.9497 22.789 21.5694C22.789 21.1892 22.4807 20.881 22.1005 20.881H12.4129L22.7807 10.5131C23.4309 9.86294 23.789 8.99849 23.789 8.07896ZM10.4656 20.8809H8.75452L4.25496 16.3814C3.44967 15.576 3.44967 14.2657 4.25496 13.4604L7.63638 10.079L14.452 16.8946L10.4656 20.8809ZM21.8071 9.53945L15.4256 15.9209L8.61007 9.10532L14.9915 2.7239C15.7968 1.91861 17.1072 1.91866 17.9125 2.7239L21.8071 6.61852C22.6124 7.42381 22.6124 8.73416 21.8071 9.53945Z" fill="currentColor"/>
<path fill-rule="evenodd" clip-rule="evenodd" d="M22.9222 5.5034C23.6099 6.1911 23.989 7.10642 23.989 8.07895C23.989 9.05152 23.6099 9.96684 22.9222 10.6545L12.8958 20.681H22.1005C22.5912 20.681 22.989 21.0788 22.989 21.5694C22.989 22.0601 22.5912 22.4579 22.1005 22.4579H8.46935C8.2337 22.4579 8.00774 22.3643 7.84114 22.1977L3.13994 17.4965C1.71963 16.0762 1.71963 13.7657 3.13994 12.3454L13.8765 1.60882C14.5642 0.921117 15.4795 0.541992 16.452 0.541992C17.4245 0.541992 18.3399 0.921117 19.0276 1.60882L22.9222 5.5034ZM22.7807 10.5131C23.4309 9.86294 23.789 8.99849 23.789 8.07896C23.789 7.15948 23.4309 6.29503 22.7807 5.64483L18.8861 1.75026C18.2359 1.10006 17.3715 0.742004 16.452 0.742004C15.5325 0.742004 14.668 1.10006 14.0178 1.75026L3.28131 12.4868C1.93911 13.829 1.93911 16.0129 3.28131 17.355L7.98251 22.0562C8.11162 22.1854 8.28672 22.2579 8.46931 22.2579H22.1005C22.4807 22.2579 22.789 21.9497 22.789 21.5694C22.789 21.1892 22.4807 20.881 22.1005 20.881H12.4129L22.7807 10.5131ZM10.3828 20.6809L14.1692 16.8945L7.63643 10.3618L4.39643 13.6018C3.66924 14.329 3.66924 15.5127 4.39643 16.2399L8.83741 20.6809H10.3828ZM8.75452 20.8809H10.4656L14.452 16.8946L7.63638 10.079L4.25496 13.4604C3.44967 14.2657 3.44967 15.576 4.25496 16.3814L8.75452 20.8809ZM15.4257 15.638L21.6657 9.39802C22.3929 8.67083 22.3929 7.48711 21.6657 6.75993L17.7711 2.86531C17.0439 2.13817 15.8602 2.13813 15.133 2.86531L8.89296 9.10531L15.4257 15.638ZM15.4256 15.9209L8.61007 9.10532L14.9915 2.7239C15.7968 1.91861 17.1072 1.91866 17.9125 2.7239L21.8071 6.61852C22.6124 7.42381 22.6124 8.73416 21.8071 9.53945L15.4256 15.9209Z" fill="currentColor"/>
<path d="M2.8457 22.1924C2.8457 21.8122 2.53745 21.504 2.15723 21.504H0.688477C0.308254 21.504 0 21.8122 0 22.1924C0 22.5727 0.308254 22.8809 0.688477 22.8809H2.15723C2.53745 22.8809 2.8457 22.5727 2.8457 22.1924Z" fill="currentColor"/>
<path d="M0.512639 18.2807C0.220722 18.5727 0.220722 19.0459 0.512639 19.3378L1.56973 20.3949C1.71569 20.5408 1.90699 20.6138 2.09825 20.6138C2.2895 20.6138 2.48086 20.5409 2.62677 20.3949C2.91868 20.103 2.91868 19.6297 2.62677 19.3378L1.56973 18.2807C1.27786 17.9888 0.804555 17.9888 0.512639 18.2807Z" fill="currentColor"/>
</g>
<defs>
<clipPath id="clip0_2330_1211">
<rect width="24" height="24" fill="white"/>
</clipPath>
</defs>
</svg>

<svg width="24" height="24" fill="none" xmlns="http://www.w3.org/2000/svg"><g clip-path="url(#a)" fill="currentColor"><path d="M23.789 8.079c0-.9195-.3581-1.784-1.0083-2.4342l-3.8946-3.8945C18.2359 1.1 17.3715.742 16.452.742s-1.784.358-2.4342 1.0083L3.2813 12.4868c-1.3422 1.3422-1.3422 3.5261 0 4.8682l4.7012 4.7012a.6881.6881 0 0 0 .4868.2017h13.6312a.6885.6885 0 1 0 0-1.3769h-9.6876l10.3678-10.3679c.6502-.6502 1.0083-1.5146 1.0083-2.4341ZM10.4656 20.8809h-1.711L4.255 16.3814c-.8053-.8054-.8053-2.1157 0-2.921l3.3814-3.3814 6.8156 6.8156-3.9864 3.9863ZM21.8071 9.5394l-6.3815 6.3815-6.8155-6.8156 6.3814-6.3814c.8053-.8053 2.1157-.8052 2.921 0l3.8946 3.8946c.8053.8053.8053 2.1157 0 2.921Z"/><path fill-rule="evenodd" clip-rule="evenodd" d="M22.9222 5.5034c.6877.6877 1.0668 1.603 1.0668 2.5756 0 .9725-.3791 1.8878-1.0668 2.5755L12.8958 20.681h9.2047a.8885.8885 0 1 1 0 1.7769H8.4694a.8884.8884 0 0 1-.6283-.2602L3.14 17.4965c-1.4203-1.4203-1.4203-3.7308 0-5.1511L13.8765 1.6088C14.5642.9211 15.4795.542 16.452.542c.9725 0 1.8879.3791 2.5756 1.0668l3.8946 3.8946Zm-.1415 5.0097c.6502-.6502 1.0083-1.5146 1.0083-2.4341s-.3581-1.784-1.0083-2.4342l-3.8946-3.8945C18.2359 1.1 17.3715.742 16.452.742s-1.784.358-2.4342 1.0083L3.2813 12.4868c-1.3422 1.3422-1.3422 3.5261 0 4.8682l4.7012 4.7012a.6881.6881 0 0 0 .4868.2017h13.6312a.6885.6885 0 1 0 0-1.3769h-9.6876l10.3678-10.3679ZM10.3828 20.6809l3.7864-3.7864-6.5328-6.5327-3.24 3.24c-.7272.7272-.7272 1.9109 0 2.6381l4.441 4.441h1.5454Zm-1.6283.2h1.7111l3.9864-3.9863-6.8156-6.8156-3.3814 3.3814c-.8053.8053-.8053 2.1156 0 2.921l4.4995 4.4995Zm6.6712-5.2429 6.24-6.24c.7272-.7272.7272-1.9109 0-2.638l-3.8946-3.8947c-.7272-.7271-1.9109-.7272-2.6381 0l-6.24 6.24 6.5327 6.5327Zm-.0001.2829L8.6101 9.1053l6.3814-6.3814c.8053-.8053 2.1157-.8052 2.921 0l3.8946 3.8946c.8053.8053.8053 2.1157 0 2.921l-6.3815 6.3814Z"/><path d="M2.8457 22.1924a.6884.6884 0 0 0-.6885-.6884H.6885a.6884.6884 0 1 0 0 1.3769h1.4687a.6885.6885 0 0 0 .6885-.6885ZM.5126 18.2807a.7475.7475 0 0 0 0 1.0571l1.0571 1.0571a.7453.7453 0 0 0 .5286.2189.7475.7475 0 0 0 .5285-1.276l-1.057-1.0571a.7475.7475 0 0 0-1.0572 0Z"/></g><defs><clipPath id="a"><path fill="#fff" d="M0 0h24v24H0z"/></clipPath></defs></svg>
